X: 31
T:Liza Jane
% Nottingham Music Database
S:Kevin Briggs, via EF
M:4/4
L:1/4
K:D
P:A
D/2E/2|"D"FF "A7"ED|"D"FA A3/2A/2|"G"BA -"D"AF|"Em""C"A2 -"A7""C"A2|\
"D"FF "A7"ED|"D"FA A3/2A/2|"Em"FF -"A7"FE|"D"D3:|
P:B
A|"D"dd2A|"G""Em"B2 "D"A2|"G""Em"BA -"D""D"AF|"Em""C"A2 -"A7""C"A2|"D"dd2A|\
"G""Em"B2 "D"A2|"Em"FF -"A7"FE|"D"D3:|<end>
<start>
